svg/newsletter-icon.svg

<svg xmlns="http://www.w3.org/2000/svg" preserveAspectRatio="xMidYMid" width="48" height="31" viewBox="0 0 48 31"><defs/><path d="M43.123 3.489a1.658 1.658 0 0 0-.41-1.165c-4.226 4.007-8.439 8.029-12.664 12.037 1.804 2.028 3.608 4.055 5.411 6.084-.414.476-.783.991-1.102 1.539-2.195-1.823-4.387-3.649-6.581-5.473-1.45 1.402-2.927 2.779-4.385 4.174-.485.472-1.318.467-1.797-.009-1.456-1.391-2.929-2.765-4.376-4.165-4.93 4.099-9.871 8.187-14.789 12.301.298.188.637.324.994.307H33.23a9.95 9.95 0 0 0 .606 1.878c-10.032 0-20.063-.001-30.094.001-.559.015-1.132-.024-1.65-.247C.877 30.277.014 29.034 0 27.726c-.003-8.151-.003-16.302 0-24.453C.007 1.766 1.159.376 2.629.077c.369-.081.747-.084 1.122-.079C16.424.003 29.097-.005 41.77.003c1.719.02 3.231 1.558 3.226 3.28.003 4.639.002 9.278.001 13.917a10.058 10.058 0 0 0-1.874-.194V3.489zm-41.251.004c.003 8.039-.001 16.08.002 24.12-.013.38.155.728.375 1.027 4.24-4.752 8.463-9.521 12.699-14.278-4.229-4.008-8.442-8.033-12.67-12.041-.269.33-.434.741-.406 1.172zm39.699-1.615H3.422a1.582 1.582 0 0 0-1.018.344c6.422 4.949 12.843 9.9 19.264 14.85.447.376 1.141.401 1.604.04 6.443-4.96 12.878-9.93 19.32-14.89a1.579 1.579 0 0 0-1.021-.344zm2.34 23.009c-.003-.96-.003-1.919 0-2.878 1.369 1.489 2.721 2.991 4.085 4.486a578.528 578.528 0 0 1-4.085 4.495c-.003-.961-.001-1.923-.002-2.884-1.289.011-2.649.17-3.752.879-.551.353-.991.885-1.168 1.513.145-1.59.617-3.253 1.793-4.413.811-.818 1.983-1.197 3.129-1.198z" class="cls-1"/></svg>

<svg xmlns="http://www.w3.org/2000/svg" xmlns:xlink="http://www.w3.org/1999/xlink" preserveAspectRatio="xMidYMid" width="48" height="31" viewBox="0 0 48 31">
  <defs>
    <style>
      .cls-1 {
        fill: #fff;
        fill-rule: evenodd;
      }
    </style>
  </defs>
  <path d="M43.123,3.489 C43.146,3.061 42.990,2.646 42.713,2.324 C38.487,6.331 34.274,10.353 30.049,14.361 C31.853,16.389 33.657,18.416 35.460,20.445 C35.046,20.921 34.677,21.436 34.358,21.984 C32.163,20.161 29.971,18.335 27.777,16.511 C26.327,17.913 24.850,19.290 23.392,20.685 C22.907,21.157 22.074,21.152 21.595,20.676 C20.139,19.285 18.666,17.911 17.219,16.511 C12.289,20.610 7.348,24.698 2.430,28.812 C2.728,29.000 3.067,29.136 3.424,29.119 C13.359,29.119 23.295,29.119 33.230,29.119 C33.371,29.771 33.575,30.399 33.836,30.997 C23.804,30.997 13.773,30.996 3.742,30.998 C3.183,31.013 2.610,30.974 2.092,30.751 C0.877,30.277 0.014,29.034 -0.000,27.726 C-0.003,19.575 -0.003,11.424 -0.000,3.273 C0.007,1.766 1.159,0.376 2.629,0.077 C2.998,-0.004 3.376,-0.007 3.751,-0.002 C16.424,0.003 29.097,-0.005 41.770,0.003 C43.489,0.023 45.001,1.561 44.996,3.283 C44.999,7.922 44.998,12.561 44.997,17.200 C44.391,17.077 43.763,17.014 43.123,17.006 C43.122,12.500 43.123,7.994 43.123,3.489 ZM1.872,3.493 C1.875,11.532 1.871,19.573 1.874,27.613 C1.861,27.993 2.029,28.341 2.249,28.640 C6.489,23.888 10.712,19.119 14.948,14.362 C10.719,10.354 6.506,6.329 2.278,2.321 C2.009,2.651 1.844,3.062 1.872,3.493 ZM41.571,1.878 C28.854,1.878 16.138,1.878 3.422,1.878 C3.051,1.862 2.696,2.000 2.404,2.222 C8.826,7.171 15.247,12.122 21.668,17.072 C22.115,17.448 22.809,17.473 23.272,17.112 C29.715,12.152 36.150,7.182 42.592,2.222 C42.299,1.999 41.943,1.861 41.571,1.878 ZM43.911,24.887 C43.908,23.927 43.908,22.968 43.911,22.009 C45.280,23.498 46.632,25.000 47.996,26.495 C46.644,28.001 45.279,29.498 43.911,30.990 C43.908,30.029 43.910,29.067 43.909,28.106 C42.620,28.117 41.260,28.276 40.157,28.985 C39.606,29.338 39.166,29.870 38.989,30.498 C39.134,28.908 39.606,27.245 40.782,26.085 C41.593,25.267 42.765,24.888 43.911,24.887 Z" class="cls-1"/>
</svg>
